Faba/22x22/apps/grive-app-ind.svg

<svg xmlns="http://www.w3.org/2000/svg" viewBox="0 0 22 22" xmlns:xlink="http://www.w3.org/1999/xlink"><g transform="translate(-1-1028.4)" opacity=".2"><path transform="translate(0 1028.36)" d="m9 4l5.625 10 6.375 1-6-11h-6m0 0l-6 11 3 5 2.813-5 2.563-4.562-2.375-6.438m-3 16h12l3-5h-5.812-5.188l-4 5" color="#000" id="0"/></g><g transform="translate(-1-1029.4)" fill="#fff"><use xlink:href="#0"/></g></svg>

<?xml version="1.0" encoding="UTF-8" standalone="no"?>
<svg xmlns="http://www.w3.org/2000/svg" xmlns:sodipodi="http://sodipodi.sourceforge.net/DTD/sodipodi-0.dtd" xmlns:inkscape="http://www.inkscape.org/namespaces/inkscape" height="22" width="22" version="1.1">
 <metadata id="metadata7"/>
 <g transform="translate(-1,-1028.4)" id="g3753" opacity="0.2">
  <g transform="translate(-67.913,-42.84)" id="g3755">
   <path transform="translate(67.913,1071.2)" d="M 9,4 14.625,14 21,15 15,4 H 9 z M 9,4 3,15 6,20 8.8125,15 11.375,10.438 9,4 z M 6,20 h 12 l 3,-5 H 15.188 10 l -4,5 z" id="path3757" inkscape:connector-curvature="0" color="#000000"/>
  </g>
 </g>
 <g id="layer1" transform="translate(-1,-1029.4)" fill="#ffffff">
  <g id="g4036" transform="translate(-67.913,-42.84)">
   <path id="path3094" d="M 9,4 14.625,14 21,15 15,4 H 9 z M 9,4 3,15 6,20 8.8125,15 11.375,10.438 9,4 z M 6,20 h 12 l 3,-5 H 15.188 10 l -4,5 z" transform="translate(67.913,1071.2)" inkscape:connector-curvature="0" color="#000000"/>
  </g>
 </g>
</svg>
